src/amo/components/CategoryIcon/img/websites.svg

<svg xmlns="http://www.w3.org/2000/svg" width="64" height="64" viewBox="0 0 64 64">
  <g class="two" fill="#0F1126">
    <path d="M4.92307692,21.2307692 L4.92307692,55.2 L59.0769231,55.2 L59.0769231,21.2307692 L4.92307692,21.2307692 Z M4.92307692,16.3076923 L59.0769231,16.3076923 L59.0769231,8.92307692 L4.92307692,8.92307692 L4.92307692,16.3076923 Z M2.46153846,4 L61.5384615,4 C62.8979317,4 64,5.10206831 64,6.46153846 L64,57.6615385 C64,59.0210086 62.8979317,60.1230769 61.5384615,60.1230769 L2.46153846,60.1230769 C1.10206831,60.1230769 0,59.0210086 0,57.6615385 L0,6.46153846 C0,5.10206831 1.10206831,4 2.46153846,4 Z"/>
  </g>
  <g class="one" fill="#0F1126">
    <path d="M10.3384615,29.8461538 L26.0923077,29.8461538 C26.7720428,29.8461538 27.3230769,30.397188 27.3230769,31.0769231 L27.3230769,46.8307692 C27.3230769,47.5105043 26.7720428,48.0615385 26.0923077,48.0615385 L10.3384615,48.0615385 C9.65872646,48.0615385 9.10769231,47.5105043 9.10769231,46.8307692 L9.10769231,31.0769231 C9.10769231,30.397188 9.65872646,29.8461538 10.3384615,29.8461538 Z M11.5692308,45.6 L24.8615385,45.6 L24.8615385,32.3076923 L11.5692308,32.3076923 L11.5692308,45.6 Z M32.9846154,32.3076923 C32.3048803,32.3076923 31.7538462,31.7566582 31.7538462,31.0769231 C31.7538462,30.397188 32.3048803,29.8461538 32.9846154,29.8461538 L53.6615385,29.8461538 C54.3412735,29.8461538 54.8923077,30.397188 54.8923077,31.0769231 C54.8923077,31.7566582 54.3412735,32.3076923 53.6615385,32.3076923 L32.9846154,32.3076923 Z M32.9846154,39.6923077 C32.3048803,39.6923077 31.7538462,39.1412735 31.7538462,38.4615385 C31.7538462,37.7818034 32.3048803,37.2307692 32.9846154,37.2307692 L53.6615385,37.2307692 C54.3412735,37.2307692 54.8923077,37.7818034 54.8923077,38.4615385 C54.8923077,39.1412735 54.3412735,39.6923077 53.6615385,39.6923077 L32.9846154,39.6923077 Z M32.9846154,47.0769231 C32.3048803,47.0769231 31.7538462,46.5258889 31.7538462,45.8461538 C31.7538462,45.1664188 32.3048803,44.6153846 32.9846154,44.6153846 L44.8,44.6153846 C45.4797351,44.6153846 46.0307692,45.1664188 46.0307692,45.8461538 C46.0307692,46.5258889 45.4797351,47.0769231 44.8,47.0769231 L32.9846154,47.0769231 Z M10.3384615,13.8461538 C9.65872646,13.8461538 9.10769231,13.2951197 9.10769231,12.6153846 C9.10769231,11.9356495 9.65872646,11.3846154 10.3384615,11.3846154 L14.2769231,11.3846154 C14.9566582,11.3846154 15.5076923,11.9356495 15.5076923,12.6153846 C15.5076923,13.2951197 14.9566582,13.8461538 14.2769231,13.8461538 L10.3384615,13.8461538 Z M20.1846154,13.8461538 C19.5048803,13.8461538 18.9538462,13.2951197 18.9538462,12.6153846 C18.9538462,11.9356495 19.5048803,11.3846154 20.1846154,11.3846154 L24.1230769,11.3846154 C24.802812,11.3846154 25.3538462,11.9356495 25.3538462,12.6153846 C25.3538462,13.2951197 24.802812,13.8461538 24.1230769,13.8461538 L20.1846154,13.8461538 Z M42.8307692,13.8461538 C42.1510342,13.8461538 41.6,13.2951197 41.6,12.6153846 C41.6,11.9356495 42.1510342,11.3846154 42.8307692,11.3846154 L53.6615385,11.3846154 C54.3412735,11.3846154 54.8923077,11.9356495 54.8923077,12.6153846 C54.8923077,13.2951197 54.3412735,13.8461538 53.6615385,13.8461538 L42.8307692,13.8461538 Z"/>
  </g>
</svg>

<svg xmlns="http://www.w3.org/2000/svg" width="64" height="64"><path d="M4.923 21.23V55.2h54.154V21.23H4.923Zm0-4.922h54.154V8.923H4.923v7.385ZM2.462 4h59.076A2.462 2.462 0 0 1 64 6.462v51.2a2.462 2.462 0 0 1-2.462 2.461H2.462A2.462 2.462 0 0 1 0 57.662v-51.2A2.462 2.462 0 0 1 2.462 4Z" class="two" fill="#0F1126"/><path d="M10.338 29.846h15.754c.68 0 1.231.551 1.231 1.23v15.755c0 .68-.551 1.23-1.23 1.23H10.337a1.23 1.23 0 0 1-1.23-1.23V31.077c0-.68.55-1.23 1.23-1.23ZM11.57 45.6h13.293V32.308H11.569V45.6Zm21.416-13.292a1.23 1.23 0 1 1 0-2.462h20.677a1.23 1.23 0 0 1 0 2.462H32.985Zm0 7.384a1.23 1.23 0 0 1 0-2.461h20.677a1.23 1.23 0 0 1 0 2.461H32.985Zm0 7.385a1.23 1.23 0 0 1 0-2.462H44.8a1.23 1.23 0 0 1 0 2.462H32.985Zm-22.647-33.23a1.23 1.23 0 1 1 0-2.462h3.939a1.23 1.23 0 1 1 0 2.461h-3.939Zm9.847 0a1.23 1.23 0 1 1 0-2.462h3.938a1.23 1.23 0 1 1 0 2.461h-3.938Zm22.646 0a1.23 1.23 0 0 1 0-2.462h10.83a1.23 1.23 0 0 1 0 2.461h-10.83Z" class="one" fill="#0F1126"/></svg>
